X:13
T:Huson Tattoo (with seconds). JBut.057, The
B:John Buttrey MS, poss. Lincolnshire, early 19thC
S:https://buttreymilitarysocialtunes1800.wordpress.com/
T:Hessian Tattoo,aka. JBut.057, The
Z:Village Music Project 2018 Steve Dumpleton/Roger Hare
N:The name "Hussian" is a colloquial pronunciation of "Hessian"
N:The original two parts don't quite reconcile, so I've cheated.
M:2/4
L:1/16
Q:1/4=92
K:G
V:1
|:D2|G2dd c2B2|B4 A4|G2AB A2G2|A4 d4|G2AB (AG).F.E|D6:|
|:d2|d2cB A2G2|A4 d4|G2AB A2G2|A4 d4|
(d^c).d.e d2ef|g2fe d2c2|B2g2A2a2|G6:|
V:2
L:1/8
|: B, | B,BBA | G2 D2 | B,D/G/ DB, | D2 BB, | B,D/G/ D/B,/D/C/ | B,3 :|
|: % B2 B2 |
z|B(A/G/) DB, | D2 B,B, | B,D/G/ DB, | D2 B2 | F/A/F/A/ Bc/d/ | Bd/c/ BA | GBDD | B,3 :|

